resources/haticons/SVG/gitpod.svg

<!-- Generated by IcoMoon.io -->
<svg version="1.1" xmlns="http://www.w3.org/2000/svg" width="24" height="24" viewBox="0 0 24 24">
<title>gitpod</title>
<path fill="#1aa6e4" d="M3.6 17v-9.4l-2.1-1.2v11.8l10.2 5.8v-2.4zM11.7 19.2v-6.9l-6-3.5v7zM12 2.4l8.1 4.7 2.1-1.2-10.2-5.9-10.2 5.9 2.1 1.2zM18 8.3l-6-3.5-6 3.5 6 3.5zM12.3 19.3l6-3.5v-2.4l-4.1 2.4v-2.4l6.2-3.6v7.2l-8.1 4.6v2.4l10.2-5.8v-11.8l-10.2 5.9z"></path>
</svg>

<svg xmlns="http://www.w3.org/2000/svg" width="24" height="24"><path fill="#1aa6e4" d="M3.6 17V7.6L1.5 6.4v11.8L11.7 24v-2.4zm8.1 2.2v-6.9l-6-3.5v7zM12 2.4l8.1 4.7 2.1-1.2L12 0 1.8 5.9l2.1 1.2zm6 5.9l-6-3.5-6 3.5 6 3.5zm-5.7 11l6-3.5v-2.4l-4.1 2.4v-2.4l6.2-3.6V17l-8.1 4.6V24l10.2-5.8V6.4l-10.2 5.9z"/></svg>
